X:1
T: The Silver Bracelet
C:
R:Jig
Q:180
K:A
M:6/8
L:1/16
e2|a6 c2B2A2|d2e2f2 a4f2|e2c2d2 e2a2A2|c2B2A2 B4e2|
a6 c2B2A2|d2e2f2 a4f2|e2f2g2 a2A2c2|1B6 A4e2:|2B6 A4F2|
|:E6 c2B2A2|F2A2d2 f4d2|c2d2e2 A2c2e2|
|1c2B2A2 B4F2|E6 c2B2A2|F2A2d2 f2g2a2|e2c2e2 d2c2B2|A6 A4F2:|
|2c2B2A2 B4e2|a2g2f2 e2c2A2|d2e2f2 a2d2f2|e2f2g2 a2A2c2|B6 A4||
